libs/ui/packages/crypto-icons/src/svg/QLC.svg

<svg width="24" height="24" viewBox="0 0 24 24" fill="none">
<path fill-rule="evenodd" clip-rule="evenodd" d="M12.3676 3.75225C16.2151 3.95925 19.3291 6.62925 20.0933 10.4032C20.1938 10.9012 20.2208 11.4165 20.2486 11.9257C20.2733 12.3757 19.9801 12.6795 19.5743 12.6787C19.1768 12.6787 18.9166 12.3907 18.9068 11.9437C18.8341 8.6535 16.6118 5.94 13.4033 5.25375C12.9233 5.15175 12.4223 5.15025 11.9318 5.09475C11.5583 5.05275 11.3108 4.7655 11.3213 4.401C11.3318 4.04025 11.6018 3.77175 11.9783 3.753C12.1081 3.747 12.2378 3.75225 12.3676 3.75225ZM11.6491 20.25C7.95683 20.139 4.63583 17.34 3.93533 13.716C3.82883 13.161 3.78833 12.5917 3.75158 12.027C3.72908 11.682 3.94883 11.4345 4.26908 11.352C4.53458 11.283 4.84358 11.3962 4.97858 11.649C5.04608 11.7772 5.07833 11.9392 5.08133 12.087C5.13608 15.24 7.26833 17.9535 10.3283 18.708C10.8803 18.8445 11.4623 18.8662 12.0323 18.927C12.3578 18.9607 12.6188 19.182 12.6623 19.4992C12.7036 19.7992 12.5146 20.1345 12.2273 20.2057C12.0421 20.2515 11.8418 20.2372 11.6491 20.25ZM11.9881 8.99775C13.6208 8.9925 14.9918 10.3312 15.0031 11.9415C15.0068 12.4965 14.4983 12.846 14.0281 12.6067C13.7731 12.4777 13.6636 12.2617 13.6531 11.9745C13.6452 11.5858 13.5005 11.2123 13.2444 10.9198C12.9882 10.6273 12.6371 10.4346 12.2528 10.3755C11.3888 10.2285 10.5488 10.815 10.3808 11.6827C10.2091 12.5692 10.7641 13.4325 11.6281 13.6192C11.7466 13.6447 11.8681 13.659 11.9881 13.6657C12.3901 13.6867 12.6721 13.9635 12.6691 14.3407C12.6661 14.7232 12.3638 15.0067 11.9543 15.0105C10.6673 15.0217 9.45383 14.0827 9.10283 12.8047C8.57858 10.896 10.0126 9.00375 11.9881 8.99775ZM17.6543 11.8155C17.6393 11.943 17.6446 12.1027 17.5981 12.2452C17.5006 12.5482 17.1781 12.7237 16.8631 12.6727C16.5353 12.6187 16.3021 12.3502 16.2983 11.9827C16.2931 11.4232 16.2023 10.8802 15.9728 10.3725C15.2131 8.69625 13.9133 7.797 12.0698 7.71C11.6191 7.6875 11.3198 7.4235 11.3228 7.02C11.3266 6.6165 11.6281 6.35325 12.0856 6.35475C14.8381 6.36 17.2433 8.49 17.5921 11.2327C17.6161 11.418 17.6318 11.6032 17.6543 11.8155ZM6.35858 12.1612C6.32033 11.856 6.39833 11.5552 6.74708 11.3947C7.20608 11.1825 7.68683 11.511 7.69583 12.0502C7.70483 12.567 7.79333 13.0642 7.97933 13.5457C8.28194 14.3423 8.81522 15.0305 9.511 15.5225C10.2068 16.0144 11.0335 16.2876 11.8853 16.3072C12.4673 16.3222 12.8056 16.7437 12.6203 17.2222C12.5168 17.4922 12.2888 17.649 11.9768 17.646C10.3253 17.631 8.93258 17.0122 7.81883 15.7995C6.90144 14.8078 6.38159 13.5128 6.35858 12.162V12.1612ZM15.0091 14.2762C14.9813 14.6115 14.8666 14.8237 14.6146 14.9415C14.3641 15.0585 14.1098 15.0405 13.9096 14.8552C13.5467 14.5189 13.1962 14.1694 12.8588 13.8075C12.6263 13.5585 12.6488 13.1662 12.8768 12.921C13.1093 12.6712 13.5248 12.6195 13.7791 12.8527C14.1556 13.1962 14.5118 13.5637 14.8591 13.938C14.9506 14.037 14.9761 14.1967 15.0091 14.2755V14.2762Z" fill="#610089"/>
</svg>

<svg width="24" height="24" viewBox="0 0 24 24" fill="none"><path fill="#610089" fill-rule="evenodd" d="M12.368 3.752c3.847.207 6.961 2.877 7.725 6.651.1.498.128 1.013.156 1.523.024.45-.269.754-.675.753-.397 0-.657-.288-.667-.735-.073-3.29-2.295-6.004-5.504-6.69-.48-.102-.98-.104-1.471-.16a.66.66 0 0 1-.61-.693c.01-.36.28-.63.656-.648.13-.006.26 0 .39 0m-.719 16.498c-3.692-.111-7.013-2.91-7.714-6.534-.106-.555-.147-1.124-.183-1.689-.023-.345.197-.592.517-.675a.63.63 0 0 1 .71.297c.067.128.1.29.102.438.055 3.153 2.187 5.866 5.247 6.621.552.137 1.134.158 1.704.219.326.034.587.255.63.572.042.3-.147.636-.435.707-.185.046-.385.031-.578.044m.34-11.252c1.632-.005 3.003 1.333 3.014 2.944.004.554-.505.904-.975.665-.255-.13-.364-.345-.375-.632a1.65 1.65 0 0 0-1.4-1.6 1.643 1.643 0 0 0-1.872 1.308c-.172.886.383 1.75 1.247 1.936q.18.038.36.047c.402.02.684.297.681.675-.003.382-.305.666-.715.67-1.287.01-2.5-.928-2.851-2.206-.524-1.909.91-3.801 2.885-3.807m5.665 2.818c-.015.127-.01.287-.056.43-.097.302-.42.478-.735.427-.328-.054-.56-.323-.565-.69-.005-.56-.096-1.103-.325-1.61-.76-1.677-2.06-2.576-3.903-2.663-.45-.022-.75-.287-.747-.69s.305-.667.763-.665c2.752.005 5.157 2.135 5.506 4.878.024.185.04.37.062.582M6.36 12.16c-.039-.305.04-.606.388-.766.46-.213.94.116.949.655a4.31 4.31 0 0 0 1.815 3.473 4.3 4.3 0 0 0 2.374.784c.582.015.92.437.735.915-.103.27-.331.427-.643.424-1.652-.015-3.044-.634-4.158-1.847a5.5 5.5 0 0 1-1.46-3.637m8.65 2.115c-.028.335-.142.548-.394.665-.25.117-.505.1-.705-.086a20 20 0 0 1-1.051-1.048c-.233-.248-.21-.64.018-.886.232-.25.648-.301.902-.068.377.343.733.71 1.08 1.085.092.099.117.259.15.337z" clip-rule="evenodd"/></svg>
